packages/icons/web/receipt_large.svg

<svg width="24" height="24" viewBox="0 0 24 24" fill="none" xmlns="http://www.w3.org/2000/svg">
<path d="M8 11H16" stroke="#212933" stroke-width="2" stroke-linecap="round" stroke-linejoin="round"/>
<path d="M8 8H16" stroke="#212933" stroke-width="2" stroke-linecap="round" stroke-linejoin="round"/>
<path d="M5 3V2C4.44772 2 4 2.44772 4 3H5ZM5 21H4C4 21.3609 4.1945 21.6939 4.50891 21.8711C4.82332 22.0484 5.20886 22.0424 5.51766 21.8556L5 21ZM8.5 18.8824L9.01766 18.0268C8.69941 17.8342 8.30059 17.8342 7.98234 18.0268L8.5 18.8824ZM12 21L11.4823 21.8556C11.8006 22.0481 12.1994 22.0481 12.5177 21.8556L12 21ZM15.5 18.8824L16.0177 18.0268C15.6994 17.8342 15.3006 17.8342 14.9823 18.0268L15.5 18.8824ZM19 21L18.4823 21.8556C18.7911 22.0424 19.1767 22.0484 19.4911 21.8711C19.8055 21.6939 20 21.3609 20 21H19ZM19 3H20C20 2.44772 19.5523 2 19 2V3ZM4 3V21H6V3H4ZM5.51766 21.8556L9.01766 19.7379L7.98234 18.0268L4.48234 20.1444L5.51766 21.8556ZM7.98234 19.7379L11.4823 21.8556L12.5177 20.1444L9.01766 18.0268L7.98234 19.7379ZM12.5177 21.8556L16.0177 19.7379L14.9823 18.0268L11.4823 20.1444L12.5177 21.8556ZM14.9823 19.7379L18.4823 21.8556L19.5177 20.1444L16.0177 18.0268L14.9823 19.7379ZM20 21V3H18V21H20ZM19 2H5V4H19V2Z" fill="#212933"/>
</svg>

<svg width="24" height="24" fill="none" xmlns="http://www.w3.org/2000/svg">
    <path d="M8 11h8M8 8h8" stroke="currentColor" stroke-width="2" stroke-linecap="round" stroke-linejoin="round"/>
    <path d="M5 3V2a1 1 0 00-1 1h1zm0 18H4a1 1 0 001.518.856L5 21zm3.5-2.118l.518-.855a1 1 0 00-1.036 0l.518.855zM12 21l-.518.856a1 1 0 001.036 0L12 21zm3.5-2.118l.518-.855a1 1 0 00-1.036 0l.518.855zM19 21l-.518.856A1 1 0 0020 21h-1zm0-18h1a1 1 0 00-1-1v1zM4 3v18h2V3H4zm1.518 18.856l3.5-2.118-1.036-1.711-3.5 2.117 1.036 1.712zm2.464-2.118l3.5 2.118 1.036-1.712-3.5-2.117-1.036 1.71zm4.536 2.118l3.5-2.118-1.036-1.711-3.5 2.117 1.036 1.712zm2.464-2.118l3.5 2.118 1.036-1.712-3.5-2.117-1.036 1.71zM20 21V3h-2v18h2zM19 2H5v2h14V2z" fill="currentColor"/>
</svg>
